assets/Ambulance/Flat/ambulance_flat.svg

<svg width="32" height="32" viewBox="0 0 32 32" fill="none" xmlns="http://www.w3.org/2000/svg">
<path d="M14 12H9.97817C9.36099 12 8.77838 12.2849 8.39946 12.7721L2.84259 19.9167C2.29649 20.6188 2 21.4829 2 22.3724V25C2 26.1046 2.89543 27 4 27H14.3192C14.3192 19.7083 15.1183 13.0875 14 12Z" fill="#E6E6E6"/>
<path d="M14.8896 8.8678C14.8462 8.91078 14.8041 8.95507 14.7633 9.00062C14.2886 9.5313 14 10.2319 14 11V21.0904H30V10C30 9.63485 29.9021 9.29256 29.7312 8.99791C29.7054 8.95343 29.678 8.91003 29.6489 8.8678H14.8896Z" fill="#F92F60"/>
<path d="M17 8C16.1115 8 15.3132 8.38625 14.7639 9H29.7324C29.3866 8.4022 28.7403 8 28 8H17ZM30 21H14V27H28C29.1046 27 30 26.1046 30 25V21Z" fill="#D3D3D3"/>
<path d="M12 26.5C12 28.433 10.433 30 8.5 30C6.567 30 5 28.433 5 26.5C5 24.567 6.567 23 8.5 23C10.433 23 12 24.567 12 26.5ZM27 26.5C27 28.433 25.433 30 23.5 30C21.567 30 20 28.433 20 26.5C20 24.567 21.567 23 23.5 23C25.433 23 27 24.567 27 26.5Z" fill="#433B6B"/>
<path d="M10 26.5C10 27.3284 9.32843 28 8.5 28C7.67157 28 7 27.3284 7 26.5C7 25.6716 7.67157 25 8.5 25C9.32843 25 10 25.6716 10 26.5ZM25 26.5C25 27.3284 24.3284 28 23.5 28C22.6716 28 22 27.3284 22 26.5C22 25.6716 22.6716 25 23.5 25C24.3284 25 25 25.6716 25 26.5Z" fill="#F4F4F4"/>
<path d="M22 12C21.4477 12 21 12.4477 21 13V14H20C19.4477 14 19 14.4477 19 15C19 15.5523 19.4477 16 20 16H21V17C21 17.5523 21.4477 18 22 18C22.5523 18 23 17.5523 23 17V16H24C24.5523 16 25 15.5523 25 15C25 14.4477 24.5523 14 24 14H23V13C23 12.4477 22.5523 12 22 12Z" fill="#F4F4F4"/>
<path d="M3 25L2 25V22.3724C2 21.9011 2.08326 21.4368 2.24282 21H3C3.55228 21 4 21.4477 4 22V24C4 24.5523 3.55228 25 3 25ZM29.5 22C28.6716 22 28 22.6716 28 23.5C28 24.3284 28.6716 25 29.5 25H30V22H29.5Z" fill="#FF822D"/>
<path d="M4.33331 18H11C12.1045 18 13 17.1046 13 16V14C13 13.4477 12.5523 13 12 13H8.2222L4.33331 18Z" fill="#26C9FC"/>
<path d="M10 12C10 11.4477 10.4477 11 11 11H13C13.5523 11 14 11.4477 14 12V12H10V12Z" fill="#D3D3D3"/>
<path d="M11 11C11 10.4477 11.4477 10 12 10V10C12.5523 10 13 10.4477 13 11V11H11V11Z" fill="#F8312F"/>
</svg>

<svg xmlns="http://www.w3.org/2000/svg" width="32" height="32" fill="none"><path fill="#E6E6E6" d="M14 12H9.978a2 2 0 0 0-1.579.772l-5.556 7.145A4 4 0 0 0 2 22.372V25a2 2 0 0 0 2 2h10.32c0-7.292.798-13.912-.32-15Z"/><path fill="#F92F60" d="M14.89 8.868A2.989 2.989 0 0 0 14 11v10.09h16V10a1.991 1.991 0 0 0-.351-1.132h-14.76Z"/><path fill="#D3D3D3" d="M17 8c-.889 0-1.687.386-2.236 1h14.968A2 2 0 0 0 28 8H17Zm13 13H14v6h14a2 2 0 0 0 2-2v-4Z"/><path fill="#433B6B" d="M12 26.5a3.5 3.5 0 1 1-7 0 3.5 3.5 0 0 1 7 0Zm15 0a3.5 3.5 0 1 1-7 0 3.5 3.5 0 0 1 7 0Z"/><path fill="#F4F4F4" d="M10 26.5a1.5 1.5 0 1 1-3 0 1.5 1.5 0 0 1 3 0Zm15 0a1.5 1.5 0 1 1-3 0 1.5 1.5 0 0 1 3 0ZM22 12a1 1 0 0 0-1 1v1h-1a1 1 0 1 0 0 2h1v1a1 1 0 1 0 2 0v-1h1a1 1 0 1 0 0-2h-1v-1a1 1 0 0 0-1-1Z"/><path fill="#FF822D" d="M3 25H2v-2.628A4 4 0 0 1 2.243 21H3a1 1 0 0 1 1 1v2a1 1 0 0 1-1 1Zm26.5-3a1.5 1.5 0 0 0 0 3h.5v-3h-.5Z"/><path fill="#26C9FC" d="M4.333 18H11a2 2 0 0 0 2-2v-2a1 1 0 0 0-1-1H8.222l-3.889 5Z"/><path fill="#D3D3D3" d="M10 12a1 1 0 0 1 1-1h2a1 1 0 0 1 1 1h-4Z"/><path fill="#F8312F" d="M11 11a1 1 0 1 1 2 0h-2Z"/></svg>
